X: 10056
T: Dick Sherlock's
R: reel
M: 4/4
K: Dmajor
|:dB|AFF2 BFAF|DEFA BABd|eBB2 egfe|dfed BcdB|
AFF2 BFAF|DEFA BABd|g2fg edBd|AFEF D2:|
|:AB|dcde fefg|afbf afef|eBB2 gBB2|g2fg edBd|
A2FA ABdf|afbf afef|g2fg edBd|AFEF D2:|

